X:225
T: Bright Phoebus
N: O'Farrell's Pocket Companion v.3 (Sky ed. p.110)
M: 3/4
L: 1/8
Q: 250
K: D
A2| d2 d2 d2| d2 fg ag|f2 d2 A2| A4 d>c|
B2 A2 d>c| B2 A2 d2| dc de fg| f2 e2 c>d|
e2 c2 a2| e2 dc BA|ef c2 B2| A4 A2|e2 dc BA|
d2 d2 e2| fg/a/ g2 f2| f2 e2 fe| d2 Bc de|
f2 f2 b2|f>e d2 c2| B4 A2| d2 d2 d2| d3e f2|
g2 g2 g2| g4 ag|fe d2 A2|dc de fg| a>b f2 e2|
d4 z A/A/| d4 z A/A/| d4 z A/A/|e4 z A/A/|
e4 z A/A/| f2 f2 f2| fe fg ag| f2 f2 f2| fe fg ag|
(3fgf (3ded (3efe| (3fgf (3ded (3efe| (3fgf (3efe (3ded|
a4 a2| a>g f2 z2| z4 a2|a>g g2 z2| z4 a2| g>f e2 z2|
z4 e2| g>f e2 z2| z4 e2|f>e d2 A2|dc de fg| a>bf2 e2| d4 ||
